X:1
T:Title
%%score ( 1 2 ) { 3 | ( 4 5 ) }
L:1/8
Q:1/4=113
M:4/4
K:G
V:1 treble nm="Grand Piano, Staff"
V:2 treble 
V:3 bass nm="Choir Pad, Redhead No. 46 (87.87)"
V:4 bass 
V:5 bass 
V:1
 [DG]2 [DF]2 [B,G]2 [DB]2 | [EA]2 G-[CG] [DG]2 [DF]2 | [B,E]2 [A,A]2 [A,D]2 [DG]2 | %3
w: By~Richard~Redhead~(1820\-1901) * * *|||
 [DE]2 [^CF]2 D4 | D2 [DG]2 [DG]2 [DF]2 | [DA]2 [DB]2 c-[Cc] [DB]2 | [DB]2 [Dd]2 [Ed]2 [Gc]2 | %7
w: ||||
 [GB]2 [FA]2 G4- | G4 z4 |] %9
w: ||
V:2
 x8 | z2 .B,2 z4 | x8 | x8 | x8 | z4 .E2 z2 | x8 | x8 | x8 |] %9
V:3
 B,2 A,2 G,2 G,2 | G,2 G,2 A,2 A,2 | G,2 E,2 F,2 G,2 | A,2 A,G, F,4 | G,2 B,2 B,2 A,2 | %5
 F,2 G,2 G,F, G,2 | G,2 G,2 G,2 E2 | .D4 B,4- | B,4 z4 |] %9
V:4
 G,2 D,2 E,2 B,,2 | C,2 E,2 D,2 D,2 | D,2 C,2 C,2 B,,2 | A,,2 A,,2 D,4 | B,,2 G,,2 D,2 D,2 | %5
 C,2 B,,2 A,,2 G,,2 | G,,2 B,,2 C,2 C,2 | C,2 z C G,,4- | G,,4 z4 |] %9
V:5
 x8 | x8 | x8 | x8 | x8 | x8 | x8 | z2 D,2 z4 | x8 |] %9

